gama.ui.shared/icons_svg/light/views/tabs/view.monitors.svg

<?xml version="1.0" encoding="UTF-8" standalone="no"?>
<!DOCTYPE svg PUBLIC "-//W3C//DTD SVG 1.1//EN" "http://www.w3.org/Graphics/SVG/1.1/DTD/svg11.dtd">
<svg xmlns="http://www.w3.org/2000/svg" xmlns:dc="http://purl.org/dc/elements/1.1/" version="1.1" xmlns:xl="http://www.w3.org/1999/xlink" viewBox="-674.6491 -2973.7685 24.75 24.75" width="24.75" height="24.75">
  <defs/>
  <g id="SOURCES" fill="none" stroke="none" stroke-dasharray="none" fill-opacity="1" stroke-opacity="1">
    <title>SOURCES</title>
    <g id="SOURCES_Light">
      <title>Light</title>
      <g id="Group_12729">
        <g id="Group_9821">
          <title>desktop</title>
          <g id="Graphic_9822">
            <path d="M -662.9741 -2956.4935 L -661.5741 -2956.4935 L -661.5741 -2957.8935 L -662.9741 -2957.8935 Z M -663.6741 -2956.4935 L -663.6741 -2957.8935 L -667.5241 -2957.8935 C -668.4901 -2957.8935 -669.2741 -2958.6775 -669.2741 -2959.6435 L -669.2741 -2965.2435 C -669.2741 -2966.2095 -668.4901 -2966.9935 -667.5241 -2966.9935 L -657.0241 -2966.9935 C -656.0581 -2966.9935 -655.2741 -2966.2095 -655.2741 -2965.2435 L -655.2741 -2959.6435 C -655.2741 -2958.6775 -656.0581 -2957.8935 -657.0241 -2957.8935 L -660.8741 -2957.8935 L -660.8741 -2956.4935 L -659.8241 -2956.4935 C -659.6281 -2956.4935 -659.4741 -2956.3395 -659.4741 -2956.1435 C -659.4741 -2955.9475 -659.6281 -2955.7935 -659.8241 -2955.7935 L -664.7241 -2955.7935 C -664.9201 -2955.7935 -665.0741 -2955.9475 -665.0741 -2956.1435 C -665.0741 -2956.3395 -664.9201 -2956.4935 -664.7241 -2956.4935 Z M -667.5241 -2966.2935 C -668.1051 -2966.2935 -668.5741 -2965.8245 -668.5741 -2965.2435 L -668.5741 -2959.6435 C -668.5741 -2959.0625 -668.1051 -2958.5935 -667.5241 -2958.5935 L -657.0241 -2958.5935 C -656.4431 -2958.5935 -655.9741 -2959.0625 -655.9741 -2959.6435 L -655.9741 -2965.2435 C -655.9741 -2965.8245 -656.4431 -2966.2935 -657.0241 -2966.2935 Z" fill="#5c76a2"/>
          </g>
        </g>
        <g id="Graphic_12711"/>
      </g>
    </g>
  </g>
</svg>

<svg height="24.75" viewBox="-674.649 -2973.769 24.75 24.75" width="24.75" xmlns="http://www.w3.org/2000/svg"><path d="m-662.9741-2956.4935h1.4v-1.4h-1.4zm-.7 0v-1.4h-3.85c-.966 0-1.75-.784-1.75-1.75v-5.6c0-.966.784-1.75 1.75-1.75h10.5c.966 0 1.75.784 1.75 1.75v5.6c0 .966-.784 1.75-1.75 1.75h-3.85v1.4h1.05c.196 0 .35.154.35.35s-.154.35-.35.35h-4.9c-.196 0-.35-.154-.35-.35s.154-.35.35-.35zm-3.85-9.8c-.581 0-1.05.469-1.05 1.05v5.6c0 .581.469 1.05 1.05 1.05h10.5c.581 0 1.05-.469 1.05-1.05v-5.6c0-.581-.469-1.05-1.05-1.05z" fill="#5c76a2"/></svg>
